Origami/48x48/apps/maxima.svg

<svg width="48" height="48" version="1.1" viewBox="0 0 48 48" xmlns="http://www.w3.org/2000/svg">
 <g transform="translate(0,-1004.3622)">
  <circle cx="24" cy="1029.362" r="20" style="opacity:.2"/>
  <circle cx="24" cy="1028.362" r="20" style="fill:#404b8b"/>
  <path d="m13.25 1019.3622c-0.6925 0-1.25 0.446-1.25 1s0.5575 1 1.25 1h0.8125s0.969302 0.2609 0.932221 1.0861c-0.251219 3.5095-1.58676 13.305-2.002533 14.0819-0.524257 0.7338-0.864762 0.832-1.742188 0.832-0.6925 0-1.25 0.446-1.25 1s0.5575 1 1.25 1h6.5c0.6925 0 1.25-0.446 1.25-1s-0.5575-1-1.25-1c-1.505622 0.1941-1.80681-0.1965-2.213168-1.3212-0.207147-1.0955-0.135484-2.8224 0.121371-5.671 0.462297-5.127 0.717645-6.1801 1.394531-5.7617 0.466687 0.2884 3.854114 7.9196 4.966797 11.3301 0.458628 1.4058 1.009487 2.4978 1.22461 2.4258 0.215122-0.072 0.8848-1.4751 1.488281-3.1192 1.364287-3.7169 4.063668-9.7039 4.509766-10.2031 0.592184-0.6628 0.9473 0.507 1.835937 6.0449 0.840804 5.2398 0.845177 5.4043 0.169922 6.1504-0.244192 0.2391-0.663604 0.125-0.998047 0.125-0.6925 0-1.25 0.446-1.25 1s0.5575 1 1.25 1h6.5c0.6925 0 1.25-0.446 1.25-1s-0.5575-1-1.25-1c-1.105944 0.1281-1.053668-0.2143-1.396405-1.0561-1.053951-3.1986-2.643686-12.4223-2.265704-13.9283 0.415229-0.9046 0.698687-1.0156 1.662109-1.0156 0.6925 0 1.25-0.446 1.25-1s-0.5575-1-1.25-1h-6.5c-0.6925 0-1.25 0.446-1.25 1s0.810871 0.4645 1.25 1c0.65166 0.6361 0.183269 1.1727-0.08369 1.8246-0.951181 2.2713-2.455367 5.5777-2.455367 5.5777-0.399502 1.1498-1.255022 2.9929-1.873047 2.9649-0.502095-0.052-2.172679-4.7877-3.261719-6.9492-0.410981-0.9865-0.68133-1.2919-0.93078-1.8979-0.797938-1.273 0.104603-1.5201 0.104603-1.5201 0.6925 0 1.25-0.446 1.25-1s-0.5575-1-1.25-1z" style="opacity:.2"/>
  <path transform="translate(0,1004.3622)" d="m13.25 14c-0.6925 0-1.25 0.446-1.25 1s0.5575 1 1.25 1h0.8125s0.969302 0.260877 0.932221 1.086063c-0.251219 3.50951-1.58676 13.305059-2.002533 14.081906-0.524257 0.73385-0.864762 0.832031-1.742188 0.832031-0.6925 0-1.25 0.446-1.25 1s0.5575 1 1.25 1h6.5c0.6925 0 1.25-0.446 1.25-1s-0.5575-1-1.25-1c-1.505622 0.19408-1.80681-0.196549-2.213168-1.321189-0.207147-1.09547-0.135484-2.822409 0.121371-5.670999 0.462297-5.127 0.717645-6.180118 1.394531-5.761718 0.466687 0.2884 3.854114 7.919578 4.966797 11.330078 0.458628 1.4058 1.009487 2.497781 1.22461 2.425781 0.215122-0.0716 0.8848-1.475041 1.488281-3.119141 1.364287-3.716899 4.063668-9.703925 4.509766-10.203124 0.592184-0.6628 0.9473 0.507021 1.835937 6.044921 0.840804 5.2398 0.845177 5.404291 0.169922 6.150391-0.244192 0.239091-0.663604 0.125-0.998047 0.125-0.6925 0-1.25 0.446-1.25 1s0.5575 1 1.25 1h6.5c0.6925 0 1.25-0.446 1.25-1s-0.5575-1-1.25-1c-1.105944 0.128122-1.053668-0.214327-1.396405-1.056136-1.053951-3.198575-2.643686-12.422297-2.265704-13.928239 0.415229-0.904583 0.698687-1.015625 1.662109-1.015625 0.6925 0 1.25-0.446 1.25-1s-0.5575-1-1.25-1h-6.5c-0.6925 0-1.25 0.446-1.25 1s0.810871 0.464535 1.25 1c0.65166 0.636135 0.183269 1.172699-0.08369 1.824601-0.951181 2.271268-2.455367 5.577743-2.455367 5.577743-0.399502 1.1498-1.255022 2.992844-1.873047 2.964844-0.502095-0.0524-2.172679-4.787719-3.261719-6.949219-0.410981-0.986486-0.68133-1.291917-0.93078-1.897854-0.797938-1.273017 0.104603-1.520115 0.104603-1.520115 0.6925 0 1.25-0.446 1.25-1s-0.5575-1-1.25-1z" style="fill:#f26265"/>
  <path transform="translate(0,1004.3622)" d="M 24 4 A 20 20 0 0 0 4 24 A 20 20 0 0 0 4.0214844 24.582031 A 20 20 0 0 1 24 5 A 20 20 0 0 1 43.978516 24.417969 A 20 20 0 0 0 44 24 A 20 20 0 0 0 24 4 z" style="fill:#ffffff;opacity:.1"/>
  <path transform="translate(0,1004.3622)" d="m13.25 14c-0.6925 0-1.25 0.446-1.25 1 0 0.186226 0.079511 0.35102 0.189453 0.5 0.217122-0.294219 0.600829-0.5 1.060547-0.5h6.5c0.459718 0 0.843425 0.205781 1.060547 0.5 0.109942-0.14898 0.189453-0.313774 0.189453-0.5 0-0.554-0.5575-1-1.25-1h-6.5zm15 0c-0.6925 0-1.25 0.446-1.25 1 0 0.198675 0.121366 0.306772 0.275391 0.398438 0.228205-0.236613 0.570475-0.398438 0.974609-0.398438h6.5c0.459718 0 0.843425 0.205781 1.060547 0.5 0.109942-0.14898 0.189453-0.313774 0.189453-0.5 0-0.554-0.5575-1-1.25-1h-6.5zm-8.771484 3.203125c-0.178245 0.196949-0.304384 0.56595 0.166015 1.316406 0.24945 0.606 0.52066 0.911938 0.931641 1.898438 1.08904 2.1615 2.759624 6.897219 3.261719 6.949219 0.618025 0.028 1.473545-1.815044 1.873047-2.964844-1e-6 0 1.503897-3.306825 2.455078-5.578125 0.235558-0.575222 0.626225-1.060267 0.267578-1.603516-0.083872 0.194479-0.181005 0.392107-0.267578 0.603516-0.951181 2.271268-2.455079 5.578125-2.455078 5.578125-0.399502 1.1498-1.255022 2.992843-1.873047 2.964844-0.502095-0.0524-2.172679-4.787719-3.261719-6.949219-0.410981-0.986486-0.682191-1.292501-0.931641-1.898438-0.073506-0.11727-0.119335-0.215939-0.166015-0.316406zm-4.548828 0.517578c-0.328345 3.858455-1.540199 12.704932-1.9375 13.447266-0.524258 0.73385-0.864762 0.832031-1.742188 0.832031-0.6925 0-1.25 0.446-1.25 1 0 0.186226 0.079511 0.35102 0.189453 0.5 0.217122-0.294219 0.600829-0.5 1.060547-0.5 0.877426 0 1.21793-0.098231 1.742188-0.832031 0.415772-0.7769 1.750734-10.572532 2.001953-14.082031 0.006259-0.139299-0.022862-0.256637-0.064453-0.365235zm18.126953 0.53125c-0.215538 2.017522 1.285095 10.620792 2.296875 13.691406 0.342737 0.8418 0.29054 1.184741 1.396484 1.056641 0.459718 0 0.843425 0.205781 1.060547 0.5 0.109942-0.14898 0.189453-0.313774 0.189453-0.5 0-0.554-0.5575-1-1.25-1-1.105944 0.128122-1.053747-0.214832-1.396484-1.056641-0.891913-2.706814-2.154797-9.683625-2.296875-12.691406zm-17.626953 11.134766c-0.02936 0.974937 8.4e-5 1.725311 0.107421 2.292969 0.406358 1.1247 0.707269 1.514412 2.212891 1.320312 0.459718 0 0.843425 0.205781 1.060547 0.5 0.109942-0.14898 0.189453-0.313774 0.189453-0.5 0-0.554-0.5575-1-1.25-1-1.505622 0.19408-1.806533-0.195673-2.212891-1.320312-0.066254-0.350377-0.095148-0.797358-0.107421-1.292969zm16.259765 1.689453c-0.06573 0.345088-0.210577 0.543781-0.441406 0.798828-0.244192 0.239091-0.663604 0.125-0.998047 0.125-0.6925 0-1.25 0.446-1.25 1 0 0.186226 0.079511 0.35102 0.189453 0.5 0.217122-0.294219 0.600829-0.5 1.060547-0.5 0.334443 0 0.753855 0.1141 0.998047-0.125 0.378323-0.418015 0.517329-0.751076 0.441406-1.798828z" style="fill:#ffffff;opacity:.2"/>
 </g>
</svg>

<svg xmlns="http://www.w3.org/2000/svg" width="48" height="48" version="1.1" viewBox="0 0 48 48">
 <g transform="translate(0,-1004.3622)">
  <circle style="opacity:0.2" cx="24" cy="1029.362" r="20"/>
  <circle style="fill:#404b8b" cx="24" cy="1028.362" r="20"/>
  <path style="opacity:0.2" d="m 13.25,1019.3622 c -0.6925,0 -1.25,0.446 -1.25,1 0,0.554 0.5575,1 1.25,1 l 0.8125,0 c 0,0 0.969302,0.2609 0.932221,1.0861 -0.251219,3.5095 -1.58676,13.305 -2.002533,14.0819 -0.524257,0.7338 -0.864762,0.832 -1.742188,0.832 -0.6925,0 -1.25,0.446 -1.25,1 0,0.554 0.5575,1 1.25,1 l 6.5,0 c 0.6925,0 1.25,-0.446 1.25,-1 0,-0.554 -0.5575,-1 -1.25,-1 -1.505622,0.1941 -1.80681,-0.1965 -2.213168,-1.3212 -0.207147,-1.0955 -0.135484,-2.8224 0.121371,-5.671 0.462297,-5.127 0.717645,-6.1801 1.394531,-5.7617 0.466687,0.2884 3.854114,7.9196 4.966797,11.3301 0.458628,1.4058 1.009487,2.4978 1.22461,2.4258 0.215122,-0.072 0.8848,-1.4751 1.488281,-3.1192 1.364287,-3.7169 4.063668,-9.7039 4.509766,-10.2031 0.592184,-0.6628 0.9473,0.507 1.835937,6.0449 0.840804,5.2398 0.845177,5.4043 0.169922,6.1504 -0.244192,0.2391 -0.663604,0.125 -0.998047,0.125 -0.6925,0 -1.25,0.446 -1.25,1 0,0.554 0.5575,1 1.25,1 l 6.5,0 c 0.6925,0 1.25,-0.446 1.25,-1 0,-0.554 -0.5575,-1 -1.25,-1 -1.105944,0.1281 -1.053668,-0.2143 -1.396405,-1.0561 -1.053951,-3.1986 -2.643686,-12.4223 -2.265704,-13.9283 0.415229,-0.9046 0.698687,-1.0156 1.662109,-1.0156 0.6925,0 1.25,-0.446 1.25,-1 0,-0.554 -0.5575,-1 -1.25,-1 l -6.5,0 c -0.6925,0 -1.25,0.446 -1.25,1 0,0.554 0.810871,0.4645 1.25,1 0.65166,0.6361 0.183269,1.1727 -0.08369,1.8246 -0.951181,2.2713 -2.455367,5.5777 -2.455367,5.5777 -0.399502,1.1498 -1.255022,2.9929 -1.873047,2.9649 -0.502095,-0.052 -2.172679,-4.7877 -3.261719,-6.9492 -0.410981,-0.9865 -0.68133,-1.2919 -0.93078,-1.8979 -0.797938,-1.273 0.104603,-1.5201 0.104603,-1.5201 0.6925,0 1.25,-0.446 1.25,-1 0,-0.554 -0.5575,-1 -1.25,-1 z"/>
  <path style="fill:#f26265" d="M 13.25,14 C 12.5575,14 12,14.446 12,15 c 0,0.554 0.5575,1 1.25,1 l 0.8125,0 c 0,0 0.969302,0.260877 0.932221,1.086063 -0.251219,3.50951 -1.58676,13.305059 -2.002533,14.081906 C 12.467931,31.901819 12.127426,32 11.25,32 10.5575,32 10,32.446 10,33 c 0,0.554 0.5575,1 1.25,1 l 6.5,0 c 0.6925,0 1.25,-0.446 1.25,-1 0,-0.554 -0.5575,-1 -1.25,-1 -1.505622,0.19408 -1.80681,-0.196549 -2.213168,-1.321189 -0.207147,-1.09547 -0.135484,-2.822409 0.121371,-5.670999 0.462297,-5.127 0.717645,-6.180118 1.394531,-5.761718 0.466687,0.2884 3.854114,7.919578 4.966797,11.330078 0.458628,1.4058 1.009487,2.497781 1.22461,2.425781 0.215122,-0.0716 0.8848,-1.475041 1.488281,-3.119141 1.364287,-3.716899 4.063668,-9.703925 4.509766,-10.203124 0.592184,-0.6628 0.9473,0.507021 1.835937,6.044921 0.840804,5.2398 0.845177,5.404291 0.169922,6.150391 C 31.003855,32.114091 30.584443,32 30.25,32 29.5575,32 29,32.446 29,33 c 0,0.554 0.5575,1 1.25,1 l 6.5,0 C 37.4425,34 38,33.554 38,33 38,32.446 37.4425,32 36.75,32 35.644056,32.128122 35.696332,31.785673 35.353595,30.943864 34.299644,27.745289 32.709909,18.521567 33.087891,17.015625 33.50312,16.111042 33.786578,16 34.75,16 35.4425,16 36,15.554 36,15 36,14.446 35.4425,14 34.75,14 l -6.5,0 C 27.5575,14 27,14.446 27,15 c 0,0.554 0.810871,0.464535 1.25,1 0.65166,0.636135 0.183269,1.172699 -0.08369,1.824601 -0.951181,2.271268 -2.455367,5.577743 -2.455367,5.577743 -0.399502,1.1498 -1.255022,2.992844 -1.873047,2.964844 -0.502095,-0.0524 -2.172679,-4.787719 -3.261719,-6.949219 -0.410981,-0.986486 -0.68133,-1.291917 -0.93078,-1.897854 C 18.847459,16.247098 19.75,16 19.75,16 20.4425,16 21,15.554 21,15 21,14.446 20.4425,14 19.75,14 Z" transform="translate(0,1004.3622)"/>
  <path style="opacity:0.1;fill:#ffffff" d="M 24 4 A 20 20 0 0 0 4 24 A 20 20 0 0 0 4.0214844 24.582031 A 20 20 0 0 1 24 5 A 20 20 0 0 1 43.978516 24.417969 A 20 20 0 0 0 44 24 A 20 20 0 0 0 24 4 z" transform="translate(0,1004.3622)"/>
  <path style="fill:#ffffff;opacity:0.2" d="M 13.25 14 C 12.5575 14 12 14.446 12 15 C 12 15.186226 12.079511 15.35102 12.189453 15.5 C 12.406575 15.205781 12.790282 15 13.25 15 L 19.75 15 C 20.209718 15 20.593425 15.205781 20.810547 15.5 C 20.920489 15.35102 21 15.186226 21 15 C 21 14.446 20.4425 14 19.75 14 L 13.25 14 z M 28.25 14 C 27.5575 14 27 14.446 27 15 C 27 15.198675 27.121366 15.306772 27.275391 15.398438 C 27.503596 15.161825 27.845866 15 28.25 15 L 34.75 15 C 35.209718 15 35.593425 15.205781 35.810547 15.5 C 35.920489 15.35102 36 15.186226 36 15 C 36 14.446 35.4425 14 34.75 14 L 28.25 14 z M 19.478516 17.203125 C 19.300271 17.400074 19.174132 17.769075 19.644531 18.519531 C 19.893981 19.125531 20.165191 19.431469 20.576172 20.417969 C 21.665212 22.579469 23.335796 27.315188 23.837891 27.367188 C 24.455916 27.395188 25.311436 25.552144 25.710938 24.402344 C 25.710937 24.402344 27.214835 21.095519 28.166016 18.824219 C 28.401574 18.248997 28.792241 17.763952 28.433594 17.220703 C 28.349722 17.415182 28.252589 17.61281 28.166016 17.824219 C 27.214835 20.095487 25.710937 23.402344 25.710938 23.402344 C 25.311436 24.552144 24.455916 26.395187 23.837891 26.367188 C 23.335796 26.314788 21.665212 21.579469 20.576172 19.417969 C 20.165191 18.431483 19.893981 18.125468 19.644531 17.519531 C 19.571025 17.402261 19.525196 17.303592 19.478516 17.203125 z M 14.929688 17.720703 C 14.601343 21.579158 13.389489 30.425635 12.992188 31.167969 C 12.46793 31.901819 12.127426 32 11.25 32 C 10.5575 32 10 32.446 10 33 C 10 33.186226 10.079511 33.35102 10.189453 33.5 C 10.406575 33.205781 10.790282 33 11.25 33 C 12.127426 33 12.46793 32.901769 12.992188 32.167969 C 13.40796 31.391069 14.742922 21.595437 14.994141 18.085938 C 15.0004 17.946639 14.971279 17.829301 14.929688 17.720703 z M 33.056641 18.251953 C 32.841103 20.269475 34.341736 28.872745 35.353516 31.943359 C 35.696253 32.785159 35.644056 33.1281 36.75 33 C 37.209718 33 37.593425 33.205781 37.810547 33.5 C 37.920489 33.35102 38 33.186226 38 33 C 38 32.446 37.4425 32 36.75 32 C 35.644056 32.128122 35.696253 31.785168 35.353516 30.943359 C 34.461603 28.236545 33.198719 21.259734 33.056641 18.251953 z M 15.429688 29.386719 C 15.400328 30.361656 15.429772 31.11203 15.537109 31.679688 C 15.943467 32.804388 16.244378 33.1941 17.75 33 C 18.209718 33 18.593425 33.205781 18.810547 33.5 C 18.920489 33.35102 19 33.186226 19 33 C 19 32.446 18.4425 32 17.75 32 C 16.244378 32.19408 15.943467 31.804327 15.537109 30.679688 C 15.470855 30.329311 15.441961 29.88233 15.429688 29.386719 z M 31.689453 31.076172 C 31.623723 31.42126 31.478876 31.619953 31.248047 31.875 C 31.003855 32.114091 30.584443 32 30.25 32 C 29.5575 32 29 32.446 29 33 C 29 33.186226 29.079511 33.35102 29.189453 33.5 C 29.406575 33.205781 29.790282 33 30.25 33 C 30.584443 33 31.003855 33.1141 31.248047 32.875 C 31.62637 32.456985 31.765376 32.123924 31.689453 31.076172 z" transform="translate(0,1004.3622)"/>
 </g>
</svg>
